X:1
T:Baptis dans la lumire de Jsus - I297
M:C|
L:1/8
K:Eb
B,E|GG GA GF ED|C4 z2 FG|:A2 BF G2 FE|[1F4 z2 FG:|[2F4 zF GA|
B2 BB AG FG|A8|G2 G2 C2 DE|F2 GF B,4|EE FF G2 GF|E4 z2||
